svgs/medito.svg

﻿<?xml version="1.0" encoding="utf-8"?>
<svg version="1.1" viewBox="0 0 192 192" width="192" height="192" style="stroke:none;stroke-linecap:butt;stroke-linejoin:miter;stroke-width:1;stroke-dasharray:none;fill:#000000;fill-opacity:1;fill-rule:evenodd" font-family="Arial" font-size="15px" xmlns:xlink="http://www.w3.org/1999/xlink" xmlns="http://www.w3.org/2000/svg">
  <path id="Shape" d="M23.672,93.2224C23.261,92.0591 17.9135,92.1408 19.2483,89.6191C20.5831,87.0974 34.6466,67.4636 41.5372,67.4606C48.4278,67.4576 56.8382,90.5327 62.6983,91.2973C68.5585,92.0618 77.2578,72.1763 86.1027,72.795C94.9476,73.4137 93.7897,85.9455 96.5147,93.9288C99.2396,101.9121 114.6274,71.3364 123.9548,72.1012C133.2822,72.8661 143.3025,96.975 155.5472,100.6279C167.7918,104.2808 176.9111,95.623 178.7652,98.6627C180.6193,101.7023 172.6144,108.3288 163.951,114.4776C155.2876,120.6264 146.9433,127.1906 137.9665,123.0581C128.9896,118.9255 116.7472,101.5057 110.8035,96.5107C104.8597,91.5157 88.3497,123.3938 78.5957,124.8929C68.8416,126.392 71.7926,103.2228 68.7927,97.8185C65.7927,92.4142 50.1265,131.3861 42.7297,120.847C35.3329,110.308 30.3628,94.396 23.672,93.2224z" style="stroke:#000000;stroke-width:0.25;" />
</svg>

<svg xmlns="http://www.w3.org/2000/svg" width="192" height="192" font-family="Arial" font-size="15" style="stroke:none;stroke-linecap:butt;stroke-linejoin:miter;stroke-width:1;stroke-dasharray:none;fill:#000;fill-opacity:1;fill-rule:evenodd" viewBox="0 0 192 192"><path d="M23.672 93.222c-.411-1.163-5.759-1.081-4.424-3.603 1.335-2.522 15.399-22.155 22.29-22.158 6.89-.003 15.3 23.072 21.16 23.836 5.86.765 14.56-19.12 23.405-18.502 8.845.619 7.687 13.15 10.412 21.134 2.725 7.983 18.112-22.593 27.44-21.828 9.327.765 19.348 24.874 31.592 28.527 12.245 3.653 21.364-5.005 23.218-1.965 1.854 3.04-6.15 9.666-14.814 15.815-8.663 6.148-17.008 12.713-25.984 8.58-8.977-4.133-21.22-21.552-27.164-26.547-5.943-4.995-22.453 26.883-32.207 28.382-9.754 1.499-6.803-21.67-9.803-27.074-3-5.405-18.667 33.567-26.063 23.028-7.397-10.539-12.367-26.451-19.058-27.625z" style="stroke:#000;stroke-width:.25"/></svg>
